X:194
T:score271
L:1/8
Q:1/4=120
M:3/4
I:linebreak $
K:Ab
!p! (c3"_dolce" A (Ac) | c3 A!<(! (Ac)!<)! |!>(! (d2!>)! !tenuto!c2) !tenuto!B2 | c3) (A (Ae) | %4
 f3 c (ce) | f3!<(! c (ce)!<)! |!>(! gf!>)! e2 =d2 | e3) (G (Gc) | c3 A (Ac) | c3 A!<(! (Ac)!<)! | %10
!>(! (d2!>)! !tenuto!c2) !tenuto!B2 | c3) z z2 |] %12
